**kern	**silbe
*ICvox	*
=1	=1
*D:	*
*M4/4	*
*clefG2	*
4f	Please
4f	please
4f	tell
8f	me
[8g	now
=2	=2
4g]	_
4r	.
2r	.
=3	=3
4f	Please
4f	please
4f	tell
8f	me
[8g	now
=4	=4
4g]	_
4r	.
2r	.
=5	=5
4f	Please
4f	please
4f	tell
8f	me
[8g	now
=6	=6
4g]	_
4r	.
2r	.
=7	=7
4f	Please
4f	please
4f	tell
8f	me
[8g	now
=8	=8
4g]	_
4r	.
2r	.
=9	=9
1r	.
=10	=10
1r	.
=11	=11
1r	.
=12	=12
1r	.
=13	=13
1r	.
=14	=14
1r	.
=15	=15
1r	.
=16	=16
1r	.
=17	=17
1r	.
=18	=18
1r	.
=19	=19
8r	.
8A	I
8d	made
16A	a
16c	break
8r	.
8c	I
4B	_
=20	=20
8c	run
8d	out
8r	.
[8g	yes-
8g]	_
8f#	-ter-
4d	-day
=21	=21
4r	.
8d	tried
8A	to
4c	find
8B	my
[8c	moun-
=22	=22
8c]	_
4d	-tain
[8g	hi-
8g]	_
8f#	-dea-
[4d	-way
=23	=23
4d]	_
4r	.
8r	.
8d	May-
8A	-be
[8c	next
=24	=24
8c]	_
8c	year
4r	.
8B	may-
4B	-be
8B	no
=25	=25
4.B	go
[8A	_
2A]	_
=26	=26
1r	.
=27	=27
8r	.
8a	I
8a	know
8a	you're
8a	watch-
4d	-ing
8A	me
=28	=28
512%85c	e-
1024%171c	-ve-
1024%171c	-ry
16c	mi-
16c	-nute
4c	of
8c	the
=29	=29
4.d	day
8d	yeah
4c	_
4r	.
=30	=30
2r	.
8r	.
8a	I've
8a	seen
8a	the
=31	=31
512%85a	signs
1024%171a	and
1024%171a	the
512%85a	looks
1024%171d	and
1024%171A	the
=32	=32
512%85c	pic-
1024%171c	-tures
1024%171B	that
16c	give
16B	your
4c	game
8c	a-
=33	=33
4.d	-way
8d	yeah
4c	_
4r	.
=34	=34
2r	.
8r	.
8d	There's
8d	a
[8g	dream
=35	=35
4g]	_
8g	that
[8f	strings
4f]	_
8f	the
[8e	road
=36	=36
4e]	_
8r	.
8d	with
8g	bro-
4.g	-ken
=37	=37
4f#	glass
8r	.
8f#	for
4e	us
8e	to
[8d	hold
=38	=38
4d]	_
4r	.
8r	.
8f	And
8f	I
[8g	cut
=39	=39
8g]	_
4g	so
[8f	far
4f]	_
8f	be-
[8e	-fore
=40	=40
4e]	_
4e	I
4d	had
8d	to
[8c	say
=41	=41
1c]	_
=42	=42
1r	.
=43	=43
4d	Please
4d	please
8d	tell
4f	me
[8g	now
=44	=44
4g]	_
4r	.
8r	.
8g	is
4g	there
=45	=45
4a	some-
4g	-thing
8f	I
4f	should
[8g	know
=46	=46
4g]	_
4r	.
8r	.
8d	Is
4d	there
=47	=47
4d	some-
4d	-thing
8d	I
4f	should
[8g	say
=48	=48
4g]	_
4r	.
4r	.
8f	that
8g	will
=49	=49
4a	make
4g	you
8f	come
4f	my
[8g	way
=50	=50
4g]	_
4r	.
8r	.
8f	Do
8f	you
[8g	feel
=51	=51
4g]	_
8g	the
[8f	same
4f]	_
8f	cause
[8e	you
=52	=52
4e]	_
4e	don't
8d	let
4c	it
[8d	show
=53	=53
2.d]	_
4r	.
=54	=54
1r	.
=55	=55
1r	.
=56	=56
1r	.
=57	=57
4r	.
8d	Peo-
8A	-ple
4c	stare
8B	and
[8c	cross
=58	=58
8c]	_
4d	the
[8g	road
8g]	_
8f#	from
4d	me
=59	=59
8r	.
8A	And
16d	jun-
16A	-gle
[8c	drums
8c]	_
8c	they
4B	all
=60	=60
4c	clear
8d	the
[8g	way
8g]	_
8f#	for
4d	me
=61	=61
4r	.
8d	Can
8A	you
8d	read
4d	my
[8c	mind
=62	=62
8c]	_
4c	can
8B	you
8c	see
4B	in
8B	the
=63	=63
4.B	snow
[8A	_
2A]	_
=64	=64
1r	.
=65	=65
8r	.
8a	And
16a	fi-
16a	-re-
8a	-y
512%85a	de-
1024%171d	-mons
1024%171A	all
=66	=66
512%85c	dance
1024%171c	when
1024%171B	you
512%85c	walk
1024%171B	through
1024%171c	that
=67	=67
4.d	door
16c	_
16d	_
2c	_
=68	=68
2r	.
8r	.
8a	Don't
8a	say
8a	you're
=69	=69
8a	ea-
4a	-sy
[8a	on
8a]	_
[8d	me
8d]	_
8r	.
=70	=70
16c	you're
16B	a-
[8c	-bout
8c]	_
8c	as
8c	ea-
8c	-sy
8c	as
8c	a
=71	=71
8d	nu-
8d	-cle-
8d	-ar
[8c	war
4c]	_
4r	.
=72	=72
2r	.
8r	.
8e	There's
8f#	a
[8g	dream
=73	=73
4g]	_
8g	that
[8f	strings
4f]	_
8f	the
[8e	road
=74	=74
4e]	_
8r	.
8d	with
8g	bro-
4.g	-ken
=75	=75
4f#	glass
8r	.
8f#	for
4e	us
8e	to
[8d	hold
=76	=76
4d]	_
4r	.
8r	.
8f	And
8f	I
[8g	cut
=77	=77
8g]	_
4g	so
[8f	far
4f]	_
8f	be-
[8e	-fore
=78	=78
4e]	_
4e	I
4d	had
8d	to
[8c	say
=79	=79
1c]	_
=80	=80
1r	.
=81	=81
4d	Please
4d	please
8d	tell
4f	me
[8g	now
=82	=82
4g]	_
4r	.
8r	.
8g	is
4g	there
=83	=83
4a	some-
4g	-thing
8f	I
4f	should
[8g	know
=84	=84
4g]	_
4r	.
8r	.
8d	Is
4d	there
=85	=85
4d	some-
4d	-thing
8d	I
4f	should
[8g	say
=86	=86
4g]	_
4r	.
4r	.
8f	that
8g	will
=87	=87
4a	make
4g	you
8f	come
4f	my
[8g	way
=88	=88
4g]	_
4r	.
8r	.
8f	Do
8f	you
[8g	feel
=89	=89
4g]	_
8g	the
[8f	same
4f]	_
8f	cause
[8e	you
=90	=90
4e]	_
4e	don't
8d	let
4c	it
[8d	show
=91	=91
2.d]	_
4r	.
=92	=92
1r	.
=93	=93
1r	.
=94	=94
1r	.
=95	=95
1r	.
=96	=96
1r	.
=97	=97
1r	.
=98	=98
1r	.
=99	=99
1r	.
=100	=100
1r	.
=101	=101
1r	.
=102	=102
1r	.
=103	=103
1r	.
=104	=104
1r	.
=105	=105
1r	.
=106	=106
4d	Please
4d	please
8d	tell
4f	me
[8g	now
=107	=107
4g]	_
4r	.
8r	.
8g	is
4g	there
=108	=108
4a	some-
4g	-thing
8f	I
4f	should
[8g	know
=109	=109
4g]	_
4r	.
8r	.
8d	Is
4d	there
=110	=110
4d	some-
4d	-thing
8d	I
4f	should
[8g	say
=111	=111
4g]	_
4r	.
4r	.
8f	that
8g	will
=112	=112
4a	make
4g	you
8f	come
4f	my
[8g	way
=113	=113
4g]	_
4r	.
2r	.
=114	=114
4d	Please
4d	please
4d	tell
8f	me
[8g	now
=115	=115
4g]	_
4r	.
4r	.
8f	Can
8g	you
=116	=116
4a	see
4g	what
8f	makes
4f	me
[8g	blow
=117	=117
4g]	_
4r	.
4r	.
8d	Can
8c	you
=118	=118
4d	see
4d	how
8d	much
4f	I'd
[8g	die
=119	=119
4g]	_
4r	.
4r	.
8f	Ever-
8g	-y
=120	=120
4a	time
4g	it
8f	pass-
4f	-es
[8g	by
=121	=121
4g]	_
4r	.
2r	.
=122	=122
4d	Please
4d	please
4d	tell
8f	me
[8g	now
=123	=123
4g]	_
4r	.
4r	.
8f	What
8g	it
=124	=124
4a	takes
4g	to
8f	make
4f	it
[8g	show
=125	=125
4g]	_
4r	.
4r	.
8d	Is
8c	there
=126	=126
4d	some-
4d	-thing
8d	I
4f	should
[8g	know
=127	=127
4g]	_
4r	.
4r	.
8f	Is
8g	there
=128	=128
4a	some-
4g	-thing
8f	I
4f	should
[8g	know
=129	=129
4g]	_
4r	.
2r	.
*-	*-
!!!ENC: Nathaniel Condit-Schultz